icon/pk/tickets-two.svg

<svg width="48" height="48" fill="none" xmlns="http://www.w3.org/2000/svg"><path d="M30 30c3 0 5 1.88 5 4h6V4h-6c0 2-2 4-5 4s-5-2-5-4h-6v14" stroke="#000" stroke-width="4" stroke-linecap="round" stroke-linejoin="round"/><path d="M30 44h-6c0-2.12-2-4-5-4s-5 1.88-5 4H8V14h6c0 2 2 4 5 4s5-2 5-4h6v30Z" fill="#2F88FF" stroke="#000" stroke-width="4" stroke-linecap="round" stroke-linejoin="round"/><circle cx="14" cy="24" r="2" fill="#fff"/><circle cx="19" cy="24" r="2" fill="#fff"/><circle cx="24" cy="24" r="2" fill="#fff"/></svg>

<svg viewBox="0 0 48 48" fill="none" xmlns="http://www.w3.org/2000/svg" height="1em" width="1em">
  <path d="M30 30C33 30 35 31.8809 35 34L41 34L41 4L35 4C35 6 33 8 30 8C27 8 25 6 25 4L19 4L19 18" stroke="black" stroke-width="4" stroke-linecap="round" stroke-linejoin="round"/>
  <path d="M30 44L24 44C24 41.8809 22 40 19 40C16 40 14 41.8809 14 44L8 44L8 14L14 14C14 16 16 18 19 18C22 18 24 16 24 14L30 14L30 44Z" fill="#2F88FF" stroke="black" stroke-width="4" stroke-linecap="round" stroke-linejoin="round"/>
  <circle cx="14" cy="24" r="2" fill="white"/>
  <circle cx="19" cy="24" r="2" fill="white"/>
  <circle cx="24" cy="24" r="2" fill="white"/>
</svg>
